X:121
T:Jenny Sutton. RHu.121
S:R.Hughes MS,1823,Whitchurch,Shrops.
A:Whitchurch, Shropshire
Z:Tony Weatherall 2006
M:C
L:1/8
Q:1/2=90
R:Reel
K:A
A/A/A Ac ecec|A/A/A Ac dBGB|A/A/A Ac ecec|efdB c2A2:|
|:aAaA gAgA|fgaf ecBA|aAaA gAgA|fgaf f2e2|
ac Aa geBg|fdAf ecBA|A/A/A Ac ecfd|caGg a2A2:|

